X:1
T:Simple Gifts
T:Yo-Yo Ma/Allison Krauss Style
T:Joseph Brackett, Jr. 1848
T:Arrangement presumed copyright Yo-Yo Ma and Allison Krauss. No copyright claimed for transcription. Use only under &quot;fair use&quot;, 17 U.S.C. ยง 107 
T:Arrangement presumed copyright Yo-Yo Ma and Allison Krauss. No copyright claimed for transcription. Use only under &quot;fair use&quot;, 17 U.S.C. ยง 107 
Z:Arrangement presumed copyright Yo-Yo Ma and Allison Krauss.
Z:No copyright claimed for transcription.
Z:Use only under "fair use", 17 U.S.C. ยง 107
%%score 1 2
L:1/8
Q:1/4=96
M:4/4
K:Bb
V:1 treble nm="Soprano" snm="S."
V:2 bass nm="Violoncello" snm="Vlc."
V:1
"^Andante" z8 | z8 | z8 | z8 | z8 | z8 | z8 | z8 | z8 |[K:Eb] z6 BB | e2 ef gega | b2 ba g2 fe | %12
w: |||||||||'Tis the|gift to be sim- ple. 'Tis the|gift to be free. 'Tis the|
 f2 f2 f2 e2 | fgfd B3 B | edef gega | b2 ba g2 fe | f2 f2 g2 gf | e2 e2 e e3 | b4 g3 f | %19
w: gift to come down|where you ought to be, and|when we find our se- lves in the|place ju- ust right, 'twill be|in the val- ley of|love and de- light.|When true sim-|
 gagf e3 f | g2 ga b2 ag | f2 fg f3 B | e4 e3 f | g2 ga b2 ag | f2 f2 g2 gf | e2 e2 e4 | z8 | z8 | %28
w: pli- ci- ty is gained, to|bow and to bend we will|not be a- shamed. To|turn, turn will|be our de- light, till by|turn- ing, turn- ing we|come round right.|||
 z8 | z6 z B | eeef gega | b2 ba g2 fe | f2 f2 g2 gf | e2 e2 e4 | b4 g3 f | gagf e3 f | %36
w: |and|when we find our se- lves in the|place ju- st right, 'twill be|in the val- ley of|love and delight.|When true sim-|pli- cit- y is gained, to|
 g2 ga b2 ag | f2 fg f3 B | e4 e3 f | g2 ga b2 ag | f2 f2 g2 gf | e2 e2 e4 |] %42
w: bow and to bend we will|not be a- shamed. To|turn, turn will|be our de- light, till by|turn- ing, turn- ing we|come round right.|
V:2
 z4 z2 F,,2 | B,,2 B,,C, D,B,,D,E, | F,2 F,E, D,2 C,B,, | C,2 F,,2 C,2 B,,2 | C,D,C,A,, F,,3 F,, | %5
 B,,2 B,,C, D,B,,D,E, | F,2 F,E, D,2 C,B,, | C,2 C,2 D,2 D,C, | B,,2 B,,2 B,,4 |[K:Eb] B,,8- | %10
 B,,8- | B,,8- | B,,8- | B,,8- | B,,8- | B,,8- | B,,4 A,,4- | A,,4 E,4 | B8- | B8 | e4 B4 | B8- | %22
 B8 | E4 B,4 | B,4 G,4 | E,8 | B,4 G,3 F, | G,A,G,F, E,3 F, | G, z G,A, B,2 A,G, | %29
 F,2 F,G, F,3 F, | G,G,G,A, B,G,B,C | E2 EC B,2 A,G, | A,2 A,2 B,4 | A,4 G,4 | B,,4 C,,3 D, | %35
 E,3 F, G,3 A, | B,2 B,C E2 CB, | A,2 A,B, A,4 | A,8 | B,2 B,C E4- | E4 A,4 | E,8 |] %42

